lib/svgs/envelope.svg

<svg xmlns="http://www.w3.org/2000/svg" viewBox="0 0 20 20">
    <path fill="#000" fill-rule="evenodd" d="M16,4 L4,4 C2.9,4 2,4.9 2,6 L2,14.8 C2,15.9 2.9,16.8 4,16.8 L16,16.8 C17.1,16.8 18,15.9 18,14.8 L18,6 C18,4.9 17.1,4 16,4 L16,4 Z M16.8,14.8 C16.8,15.234 16.434,15.6 16,15.6 L4,15.6 C3.566,15.6 3.2,15.234 3.2,14.8 L3.2,6 C3.2,5.566 3.566,5.2 4,5.2 L16,5.2 C16.434,5.2 16.8,5.566 16.8,6 L16.8,14.8 L16.8,14.8 Z M16.0939,7.2574 C15.9059,6.9854 15.5309,6.9174 15.2589,7.1054 L9.9999,10.7424 L4.7409,7.1054 C4.4699,6.9174 4.0949,6.9854 3.9059,7.2574 C3.7179,7.5294 3.7859,7.9034 4.0589,8.0924 L7.2109,10.2724 L4.0589,12.4524 C3.7859,12.6414 3.7179,13.0154 3.9059,13.2874 C4.0229,13.4554 4.2099,13.5464 4.4009,13.5464 C4.5179,13.5464 4.6369,13.5124 4.7409,13.4404 L8.2659,11.0024 L9.6589,11.9654 C9.7609,12.0364 9.8809,12.0724 9.9999,12.0724 C10.1189,12.0724 10.2389,12.0364 10.3419,11.9654 L11.7349,11.0024 L15.2589,13.4404 C15.3629,13.5124 15.4819,13.5464 15.5999,13.5464 C15.7899,13.5464 15.9769,13.4554 16.0939,13.2874 C16.2819,13.0154 16.2139,12.6414 15.9419,12.4524 L12.7899,10.2724 L15.9419,8.0924 C16.2139,7.9034 16.2819,7.5294 16.0939,7.2574 L16.0939,7.2574 Z"/>
</svg>

<svg xmlns="http://www.w3.org/2000/svg" viewBox="0 0 20 20">
    <path fill="#000" fill-rule="evenodd" d="M16 4H4c-1.1 0-2 .9-2 2v8.8c0 1.1.9 2 2 2h12c1.1 0 2-.9 2-2V6c0-1.1-.9-2-2-2m.8 10.8a.81.81 0 0 1-.8.8H4a.81.81 0 0 1-.8-.8V6c0-.434.366-.8.8-.8h12c.434 0 .8.366.8.8v8.8m-.706-7.543a.601.601 0 0 0-.835-.152l-5.26 3.637-5.258-3.637a.6.6 0 0 0-.682.987l3.152 2.18-3.152 2.18a.6.6 0 0 0 .682.988l3.525-2.438 1.393.963a.598.598 0 0 0 .683 0l1.393-.963 3.524 2.438a.602.602 0 0 0 .683-.988l-3.152-2.18 3.152-2.18a.601.601 0 0 0 .152-.835"/>
</svg>
